X:1
T:Raggle Taggle Gypsies (Molly Dance)
L:1/8
M:4/4
I:linebreak $
K:Emin
V:1 treble 
V:1
 BA | G2 E2 E2 BA | GAFG E2 B2 | e2 e2 e2 fe | d2 BA B3 c | d2 d2 e2 Bc | dc B2 A4 | G2 B2 dc BA |$ %8
 B2 E2 E3 D :: E2 E2 G2 G2 | A2 GA B4 | E2 E2 G2 AG | F2 D2 D4 | E2 E2 G2 G2 | A2 GA B3 A | %15
 B2 e2 BA GF | G2 E2 E4 :| %17
